src/images/svg/payment-methods/payment-zing-pay.svg

<svg width="128" height="80" viewBox="0 0 128 80" fill="none" xmlns="http://www.w3.org/2000/svg">
<path d="M80.3094 31.4601C80.6925 31.4601 81.0739 31.502 81.4479 31.5841C81.8329 31.6681 82.2142 31.7739 82.5864 31.9016H86.9799V33.2554H84.0351V33.3393C84.3562 33.7079 84.6098 34.133 84.7832 34.591C84.9328 35.0471 85.0076 35.5251 85.0094 36.0068C85.0386 37.18 84.5514 38.3057 83.6757 39.0867C82.851 39.8858 81.7453 40.331 80.5958 40.3273C80.5958 40.3273 79.1599 40.3273 79.0577 40.5828C79.0577 40.5828 77.713 41.7541 79.0577 42.3708C79.6343 42.6208 80.2473 42.7814 80.8732 42.8416L81.0775 42.8543C81.3676 42.8744 81.7252 42.9145 82.1357 42.9145H82.4021C83.0498 42.9966 83.5005 42.9966 83.7778 42.9966C84.1847 43.0204 84.5806 43.1244 84.9474 43.3032C85.3305 43.4984 85.6772 43.7538 85.9746 44.064C86.3085 44.4107 86.5803 44.8121 86.7756 45.2536C86.9872 45.7718 87.093 46.3264 87.0821 46.8866C87.0857 47.5215 86.9525 48.151 86.6916 48.733C86.4106 49.3315 85.9874 49.8515 85.4619 50.251C84.8415 50.7126 84.1482 51.0593 83.4093 51.2783C82.4605 51.5373 81.4771 51.6578 80.4937 51.6377C79.0231 51.7344 77.5561 51.4187 76.2552 50.7254C75.3357 50.1671 74.7956 49.1508 74.8503 48.0762C74.8193 47.2168 75.2007 46.3939 75.8757 45.8594C76.6183 45.2919 77.5251 44.9781 78.4611 44.9653V44.7829C78.2057 44.6898 77.9484 44.5858 77.682 44.4636C77.4302 44.3541 77.1949 44.2081 76.9832 44.033C76.7606 43.8414 76.58 43.6079 76.4505 43.3451C76.2972 43.0258 76.226 42.6719 76.2443 42.3179C76.2498 41.8308 76.4158 41.3582 76.7169 40.9751C77.1091 40.5244 77.6018 40.1723 78.1546 39.9478V39.7417C77.4065 39.3695 76.7625 38.8203 76.2753 38.1415C75.8192 37.4774 75.582 36.6892 75.5984 35.8828C75.5619 34.6822 76.0436 33.5218 76.923 32.7026C77.8426 31.8578 79.0596 31.4126 80.3094 31.4619V31.4601ZM80.9863 45.655C79.7036 45.582 78.4812 46.1987 78.4812 47.7076C78.4848 47.9393 78.5359 48.1692 78.6271 48.3827C78.7311 48.6272 78.8935 48.8425 79.0979 49.0103C79.3442 49.2129 79.6306 49.3643 79.939 49.4519C80.3586 49.5796 80.7965 49.638 81.2326 49.6252C81.9624 49.6599 82.6849 49.4501 83.2852 49.0304C83.7833 48.5889 84.0771 47.9612 84.0953 47.2971C84.1354 46.8191 83.9402 46.352 83.5717 46.0436C83.2068 45.8338 82.7926 45.7316 82.3711 45.7462C81.9095 45.655 81.4479 45.655 80.9863 45.655ZM55.9353 27.3129V30.9255L50.4325 42.9218H56.0375V45.9907H45.7744V44.657L52.476 30.9766H45.9587V27.3129H55.9335H55.9353ZM61.7738 32.1771V45.9907H58.0591V32.1789H61.7738V32.1771ZM70.6831 31.4582C71.9493 31.3688 73.1718 31.9344 73.9253 32.9562C73.96 33.0164 73.991 33.0784 74.0165 33.1423C74.4033 34.04 74.5584 35.0216 74.469 35.994V45.9925H70.4879V36.5688C70.497 35.943 70.5061 34.9267 69.831 34.6202C69.5847 34.5143 69.3165 34.4742 69.0501 34.507C68.8221 34.5198 68.6013 34.5855 68.4042 34.7023C67.7784 35.1018 67.7784 36.1984 67.7784 36.868V45.9907H63.7954V31.6662H67.7784V32.4873C68.5922 31.8067 69.6212 31.4436 70.6831 31.4601V31.4582ZM80.2163 32.9562C79.9645 32.9507 79.7182 33.0219 79.5084 33.1624C79.2986 33.312 79.1325 33.5127 79.0267 33.7462C78.9027 34.0144 78.8206 34.2972 78.7804 34.5892C78.7293 34.9212 78.7074 35.2588 78.7074 35.5945C78.6819 36.2568 78.8278 36.9136 79.1271 37.5029C79.3278 37.939 79.7492 38.2273 80.2273 38.251C80.7254 38.2565 81.1797 37.9682 81.3859 37.5139C81.6814 36.941 81.8237 36.3006 81.7964 35.6565C81.8292 34.976 81.6869 34.2972 81.3859 33.686C81.1687 33.2372 80.7144 32.9544 80.2181 32.9562H80.2163ZM59.9456 26.4608C60.4328 26.4626 60.8962 26.6725 61.2192 27.0355L61.3651 27.2089C61.637 27.572 61.7811 28.0153 61.7738 28.4715C61.7848 29.0133 61.5823 29.537 61.2082 29.9293C60.8798 30.2996 60.4018 30.5058 59.9055 30.4949C59.4202 30.4912 58.9567 30.2832 58.6338 29.9183C57.904 29.0918 57.904 27.8511 58.6338 27.0246L58.8163 26.8604C59.1374 26.6068 59.5333 26.4663 59.9475 26.459L59.9456 26.4608Z" fill="#474747"/>
<path d="M124 31.879L118.773 47.2708L118.413 48.298L118.269 48.6538C118.081 49.11 117.911 49.4968 117.747 49.8161C117.503 50.2758 117.214 50.7083 116.884 51.1097L116.64 51.3724C116.295 51.7045 115.886 51.9635 115.437 52.135C114.822 52.3722 114.167 52.4872 113.509 52.4744C113.038 52.4744 112.567 52.4416 112.102 52.3722H111.732V49.7558L112.246 49.838C112.555 49.8854 112.867 49.9073 113.18 49.8982C113.72 49.9383 114.257 49.7777 114.687 49.4475C115.103 49.0333 115.392 48.5097 115.519 47.9386L115.704 47.2909L110.358 31.9592H114.525L117.235 42.4376L119.944 31.9592H123.392L123.996 31.8771L124 31.879ZM105.012 31.7348C106.331 31.6801 107.623 32.118 108.635 32.9664C109.659 33.9571 110.19 35.3529 110.082 36.7742V46.8311H107.331V45.8057C107.07 46.0794 106.769 46.3166 106.439 46.5027C105.709 46.9114 104.882 47.1157 104.049 47.0993C103.417 47.0993 102.793 46.9789 102.209 46.7399C101.655 46.5082 101.158 46.1578 100.753 45.7127C100.345 45.2839 100.027 44.7785 99.8193 44.2257L99.6952 43.8498C99.5492 43.3462 99.4763 42.8226 99.4799 42.2953C99.4653 41.4852 99.6551 40.6824 100.035 39.9653C100.429 39.2866 101.02 38.7429 101.728 38.4054C102.54 38.004 103.439 37.8106 104.344 37.8398H107.3V36.8144C107.366 36.1758 107.152 35.5408 106.716 35.0701C106.223 34.6705 105.594 34.4716 104.961 34.5154C104.435 34.4899 103.914 34.6121 103.452 34.8657C103.087 35.1011 102.832 35.4678 102.733 35.8911L102.642 36.2104H99.9707V35.7361C100.014 34.5647 100.578 33.4736 101.511 32.762C102.532 32.045 103.762 31.6856 105.01 31.7348H105.012ZM92.9645 28.2664C94.5901 28.1314 96.2067 28.6149 97.4911 29.6202L97.7429 29.9176C98.6224 31.036 99.0493 32.4537 98.9289 33.8805C98.9709 35.0336 98.7282 36.1794 98.2191 37.2158C97.7393 38.1134 96.9584 38.8159 96.0133 39.1954L95.4294 39.3669C94.4533 39.6242 93.4443 39.7464 92.4317 39.73V46.6067H88.5107V28.2664H92.9645ZM107.026 40.52L104.746 40.551C104.271 40.5018 103.8 40.6952 103.496 41.0637C103.222 41.4815 103.091 41.9723 103.114 42.4686C103.071 43.0415 103.242 43.609 103.598 44.0614L103.742 44.2056C104.045 44.4756 104.439 44.6252 104.85 44.6252C105.474 44.6252 106.056 44.3169 106.41 43.8042C106.842 43.2094 107.059 42.485 107.026 41.7516V40.52ZM92.6889 31.2696L92.4317 31.2842V36.672C93.0922 36.7195 93.7508 36.5553 94.311 36.1977C94.7872 35.6284 95.0043 34.884 94.9039 34.1469C94.9751 33.3587 94.7598 32.5723 94.3 31.9301C93.8037 31.4484 93.1195 31.2112 92.4317 31.2842L92.6889 31.2696Z" fill="#72C579"/>
<path d="M23.6157 50.6111C23.6339 50.6603 23.6522 50.7078 23.6777 50.7534C23.7744 50.9796 23.9021 51.1913 24.0572 51.3792C24.1886 51.5616 24.3364 51.7295 24.4988 51.8828C24.8272 52.1893 25.1976 52.4484 25.5971 52.6527C25.8234 52.7604 26.0569 52.8534 26.2941 52.9301C26.8944 52.6691 27.5403 52.5323 28.1935 52.5287C28.5912 52.5323 28.9871 52.5834 29.3739 52.6837C30.8573 51.8755 31.713 50.2589 31.5488 48.5785C31.651 46.6445 30.3537 44.9167 28.4708 44.4733C28.1971 44.5098 27.9234 44.528 27.6498 44.5335C25.8325 44.5335 23.4004 43.8055 22.5173 42.0193C21.9736 40.8698 22.5173 39.5872 22.2418 38.3976C21.9754 37.3886 21.366 36.5073 20.5176 35.9034C19.7659 35.356 18.8591 35.0641 17.9304 35.0714C16.2847 35.0076 14.763 35.949 14.0879 37.4506C13.411 38.954 13.7121 40.7166 14.8506 41.9062C15.6169 42.7454 16.6751 43.2563 17.8063 43.333H18.3519C20.1144 43.3749 21.7601 44.2288 22.8074 45.6501C23.8547 47.0678 24.1886 48.8923 23.7087 50.5892L23.6175 50.6092L23.6157 50.6111Z" fill="#A8E2C1"/>
<path d="M12.8 49.9936C12.7562 49.7345 12.727 49.4754 12.7179 49.2127V49.0284C12.7124 47.0305 13.767 45.1786 15.4876 44.1641H15.5387C16.3725 43.6952 17.3121 43.4471 18.27 43.4453C18.7517 43.4453 18.7937 43.1588 19.2443 43.2719C20.9411 42.7264 22.1508 41.2266 22.3241 39.4532C22.3533 38.2855 21.8863 37.1597 21.0342 36.3587C20.184 35.5559 19.0327 35.1546 17.8686 35.2549C15.4602 35.3553 13.5901 37.3841 13.6813 39.7925C13.8364 41.6116 12.9971 43.3741 11.4845 44.3995C9.93549 45.2315 8.14014 44.6258 6.64219 45.653C5.03112 46.6583 4.25751 48.5905 4.72824 50.4296C5.19898 52.2688 6.80275 53.5934 8.69845 53.7047C10.5942 53.8142 12.3421 52.6884 13.0244 50.9168C12.9259 50.6157 12.8493 50.3074 12.8 49.9936Z" fill="#93D9E5"/>
<path d="M37.5023 54.0054C36.4075 54.0893 35.3128 53.8539 34.3513 53.3285C33.5795 52.9489 32.9318 52.3578 32.483 51.6243C31.8973 50.7321 31.5853 49.6867 31.5889 48.6175C31.5908 47.999 31.6966 47.3859 31.8991 46.8021C30.9467 45.0505 28.916 44.1857 26.9966 44.7111C25.0753 45.2384 23.7671 47.0174 23.8419 49.0079C23.8127 50.6591 24.7743 52.168 26.285 52.8358C26.7776 52.6515 27.2976 52.5439 27.8231 52.5184C30.3993 52.3468 32.6545 54.2243 32.9555 56.7878C33.1927 58.0285 32.9555 59.3421 33.6543 60.5226C34.4389 61.8783 35.8839 62.7139 37.4494 62.7194C39.7811 62.6063 41.6093 60.685 41.6093 58.3514C41.6093 56.0197 39.7811 54.0984 37.4494 53.9853L37.5023 54.0054Z" fill="#A8E2C1"/>
<path d="M17.9301 34.7725C16.7679 34.8929 15.5947 34.6867 14.5437 34.1777C13.8139 33.7489 13.2118 33.1322 12.7976 32.3915C12.628 32.0411 12.5148 31.6671 12.4601 31.284C12.2448 30.3352 12.2448 29.3499 12.4601 28.3994C11.6847 26.3139 9.46603 25.148 7.3076 25.6899C5.15099 26.2318 3.74791 28.31 4.05079 30.5122C4.35366 32.7162 6.26578 34.3401 8.48808 34.2799C9.54449 34.2142 10.5954 34.4678 11.5059 35.0097C12.1445 35.3855 12.6772 35.9183 13.0567 36.5587C13.9581 38.0968 13.3012 39.7097 14.2244 41.2387C15.2334 42.9173 17.2313 43.7292 19.1252 43.2238C21.0172 42.7184 22.3473 41.0216 22.3838 39.0638C22.3619 37.9034 21.8821 36.7996 21.0464 35.9949C20.2108 35.1903 19.0905 34.7506 17.9301 34.7725Z" fill="#93D9E5"/>
<path d="M17.6017 16.0031C15.6202 16.0542 13.9289 17.4445 13.4965 19.3785C13.3213 20.3035 13.3432 21.2578 13.179 22.181C13.0549 22.9637 12.7484 23.7045 12.285 24.3467C11.8161 24.989 11.1246 25.4305 10.3455 25.5874C9.6631 25.6422 8.97707 25.6422 8.29286 25.5874C6.1618 25.6239 4.36827 27.193 4.04898 29.3004C3.73151 31.4077 4.98497 33.4366 7.01021 34.0971C9.01721 34.7138 11.1829 33.8617 12.2339 32.0445C12.3251 31.8803 12.389 31.7051 12.4182 31.5208C12.4546 31.2782 12.4546 31.0337 12.4182 30.791C12.2375 29.7091 12.3634 28.5961 12.7776 27.5798C13.2064 26.5581 14.0055 25.737 15.0145 25.2809C16.3391 24.7153 17.879 24.9525 19.2438 24.469C20.8676 23.8395 21.9623 22.3087 22.0353 20.5699C22.0992 19.3621 21.6558 18.1816 20.8129 17.3149C19.9663 16.4483 18.7986 15.9721 17.5889 16.0013H17.5999L17.6017 16.0031Z" fill="#93D9E5"/>
<path d="M37.2358 34.889C34.8237 34.951 32.9189 36.9525 32.9755 39.3627C33.0448 40.4192 32.793 41.4701 32.2584 42.3805C31.8716 43.0137 31.3407 43.5446 30.7075 43.9314C29.1567 44.8346 27.3613 44.2288 25.8324 45.152C24.4913 46.0369 23.7305 47.575 23.8418 49.177C23.9513 50.7789 24.9183 52.1984 26.367 52.8899C26.9472 52.6527 27.5675 52.5323 28.1933 52.5305C28.7772 52.5305 29.3537 52.64 29.8974 52.8498C30.7805 52.4301 31.503 51.7295 31.9501 50.8574C31.6709 50.1732 31.5286 49.4415 31.5304 48.7044C31.4611 46.4146 32.8733 44.3437 35.0281 43.572C35.4167 43.4351 35.8272 43.3694 36.2396 43.3767H36.4038C37.4675 43.5555 38.5586 43.4315 39.5548 43.0173C40.9268 42.2109 41.757 40.7293 41.7296 39.1383C41.6986 37.9779 41.206 36.8777 40.363 36.0822C39.5201 35.2849 38.3943 34.8561 37.2358 34.889Z" fill="#A8E2C1"/>
<path d="M31.6107 48.5972C31.6107 47.9203 31.7366 47.247 31.9811 46.6157C31.1527 45.3075 29.7004 44.5285 28.1513 44.5631C27.8831 44.5741 27.6168 44.6051 27.3522 44.6543C27.0931 44.7109 26.8395 44.7857 26.5932 44.8824C26.3542 44.9828 26.1243 45.1032 25.9053 45.24C25.6864 45.3732 25.4857 45.5283 25.2996 45.7035C25.1062 45.8731 24.931 46.0629 24.7759 46.2672C24.619 46.4698 24.484 46.6869 24.3654 46.9131C24.2414 47.1394 24.1392 47.3766 24.0571 47.6211C23.9823 47.8765 23.9275 48.1374 23.8929 48.402C23.8929 48.7723 23.8929 49.15 23.8308 49.5204C23.8254 49.6956 23.8071 49.8707 23.7797 50.0441C23.756 50.2101 23.7214 50.3743 23.6776 50.5367C23.5736 50.8614 23.4422 51.1771 23.2871 51.4818C23.1849 51.6843 23.0718 51.8832 22.9496 52.0766C21.9899 53.7242 20.1945 54.7039 18.2897 54.6218C18.0105 54.6127 17.7332 54.589 17.4577 54.5488C17.1566 54.6346 16.8684 54.755 16.5965 54.9083C15.2427 55.7293 14.4308 57.2072 14.4618 58.7891C14.5202 61.2303 16.5491 63.1625 18.9921 63.1041C21.437 63.0439 23.3674 61.015 23.3072 58.572C23.2451 57.7327 23.3491 56.8879 23.6174 56.0906C24.1702 53.9851 26.0805 52.5236 28.2553 52.5382C28.914 52.5382 29.5672 52.6714 30.1748 52.9287C31.0232 52.5127 31.7165 51.8358 32.1544 50.9983C31.7931 50.2502 31.607 49.4292 31.6107 48.5972Z" fill="#81D9B9"/>
<path d="M27.712 52.5281C29.8543 52.5281 31.591 50.7408 31.591 48.536C31.591 46.3313 29.8543 44.5439 27.712 44.5439C25.5697 44.5439 23.833 46.3313 23.833 48.536C23.833 50.7408 25.5697 52.5281 27.712 52.5281Z" fill="#81D9B9"/>
<path d="M19.9824 54.417C19.4807 54.5575 18.9625 54.6304 18.4425 54.6323H18.2382C15.151 54.6104 12.6642 52.0962 12.6751 49.009V48.9269V48.7627V48.3102C12.6861 48.1643 12.7061 48.022 12.7372 47.8796C12.7664 47.6972 12.8083 47.5147 12.8594 47.3359C12.0511 45.8872 10.5057 45.0042 8.84541 45.0479C7.24163 45.0206 5.75098 45.8745 4.96278 47.2739C4.17458 48.6733 4.21836 50.3902 5.07225 51.7495C5.92979 53.107 7.46058 53.8879 9.06253 53.7802C10.139 53.7091 11.21 53.959 12.1405 54.4991C12.8193 54.8512 13.3976 55.3657 13.8246 55.9989C14.7478 57.5479 14.1329 59.3432 15.0762 60.8722C15.9338 62.1968 17.4208 62.9759 18.9972 62.9248C21.1939 62.9248 23.0458 61.2827 23.3067 59.1006C23.5695 56.9184 22.1573 54.8859 20.0226 54.3659L19.9824 54.417Z" fill="#93D9E5"/>
<path d="M23.3072 58.5095C23.2451 56.5518 21.8859 54.8732 19.9829 54.4043H19.8588C19.7256 54.4043 19.5833 54.4663 19.4483 54.4973H18.2386C17.974 54.4937 17.7095 54.4718 17.4486 54.4353C17.1493 54.5156 16.8647 54.6324 16.5965 54.7856C15.2427 55.6067 14.4308 57.0845 14.4618 58.6646C14.4873 60.075 15.219 61.3777 16.4122 62.1331L16.5856 62.2462C16.7936 62.3739 17.0125 62.4816 17.2424 62.5637H17.3446C17.5617 62.6366 17.777 62.6877 17.9923 62.7388H18.1875C18.4466 62.7644 18.7075 62.7644 18.9666 62.7388C21.3075 62.7078 23.216 60.8504 23.309 58.5113L23.3072 58.5095Z" fill="#81D9B9"/>
<path d="M18.0012 43.3515C20.4105 43.3515 22.3636 41.431 22.3636 39.062C22.3636 36.6929 20.4105 34.7725 18.0012 34.7725C15.5918 34.7725 13.6387 36.6929 13.6387 39.062C13.6387 41.431 15.5918 43.3515 18.0012 43.3515Z" fill="#81D9B9"/>
</svg>

<svg width="128" height="80" fill="none" xmlns="http://www.w3.org/2000/svg"><path d="M80.31 31.46c.382 0 .764.042 1.138.124.385.084.766.19 1.138.318h4.394v1.353h-2.945v.084c.321.369.575.794.748 1.252.15.456.224.934.226 1.416a3.992 3.992 0 0 1-1.334 3.08 4.406 4.406 0 0 1-3.08 1.24s-1.435 0-1.537.256c0 0-1.345 1.171 0 1.788.576.25 1.19.41 1.815.47l.204.014c.29.02.648.06 1.059.06h.266c.648.082 1.098.082 1.376.082.406.023.802.127 1.17.306.382.196.729.451 1.026.761.334.347.606.748.801 1.19.212.518.318 1.073.307 1.633a4.45 4.45 0 0 1-.39 1.846 4.096 4.096 0 0 1-1.23 1.518 6.554 6.554 0 0 1-2.053 1.027c-.949.26-1.932.38-2.916.36a7.905 7.905 0 0 1-4.238-.913 2.925 2.925 0 0 1-1.405-2.649 2.704 2.704 0 0 1 1.026-2.217 4.356 4.356 0 0 1 2.585-.894v-.182a10.367 10.367 0 0 1-.78-.32 2.93 2.93 0 0 1-.698-.43 2.176 2.176 0 0 1-.533-.688 2.124 2.124 0 0 1-.206-1.027c.006-.487.172-.96.473-1.343.392-.45.885-.803 1.437-1.027v-.206a5.121 5.121 0 0 1-1.879-1.6 3.849 3.849 0 0 1-.677-2.26 4.173 4.173 0 0 1 1.325-3.18 4.727 4.727 0 0 1 3.386-1.24v-.002zm.676 14.195c-1.282-.073-2.505.544-2.505 2.053.004.232.055.461.146.675.104.244.266.46.47.627.247.203.534.354.842.442.42.128.857.186 1.293.173a3.31 3.31 0 0 0 2.053-.594c.498-.442.792-1.07.81-1.734a1.473 1.473 0 0 0-.523-1.253 2.246 2.246 0 0 0-1.201-.298c-.462-.09-.923-.09-1.385-.09zm-25.05-18.342v3.613l-5.504 11.996h5.605v3.069H45.774v-1.334l6.702-13.68h-6.517v-3.664h9.976zm5.838 4.864v13.814h-3.715V32.179h3.715v-.002zm8.909-.719a3.704 3.704 0 0 1 3.242 1.498c.035.06.066.123.091.186.387.898.542 1.88.453 2.852v9.999h-3.981v-9.424c.009-.626.018-1.642-.657-1.949a1.507 1.507 0 0 0-.781-.113 1.417 1.417 0 0 0-.646.195c-.626.4-.626 1.497-.626 2.166v9.123h-3.983V31.666h3.983v.821a4.416 4.416 0 0 1 2.905-1.027v-.002zm9.533 1.498a1.222 1.222 0 0 0-.708.206c-.21.15-.376.35-.481.584a2.965 2.965 0 0 0-.247.843c-.05.332-.073.67-.073 1.006-.025.662.12 1.319.42 1.908.2.436.622.724 1.1.748.498.006.953-.283 1.159-.737a3.709 3.709 0 0 0 .41-1.857c.033-.68-.11-1.36-.41-1.97a1.292 1.292 0 0 0-1.168-.73h-.002zm-20.27-6.495c.487.002.95.212 1.273.575l.146.173c.272.363.416.806.409 1.263a2.051 2.051 0 0 1-.566 1.457c-.328.37-.806.577-1.303.566a1.715 1.715 0 0 1-1.271-.577 2.186 2.186 0 0 1 0-2.893l.182-.165a1.874 1.874 0 0 1 1.131-.4h-.002z" fill="#474747"/><path d="m124 31.88-5.227 15.39-.36 1.028-.144.356c-.188.456-.358.843-.522 1.162-.244.46-.533.892-.863 1.294l-.244.263a3.57 3.57 0 0 1-1.203.762 5.077 5.077 0 0 1-1.928.34 9.55 9.55 0 0 1-1.407-.103h-.37v-2.616l.514.082c.309.047.621.07.934.06a2.21 2.21 0 0 0 1.508-.45c.415-.415.704-.938.831-1.51l.185-.647-5.346-15.332h4.167l2.71 10.479 2.709-10.479h3.448l.604-.082.004.002zm-18.988-.145a5.295 5.295 0 0 1 3.623 1.232 4.794 4.794 0 0 1 1.447 3.807v10.057h-2.751v-1.025c-.261.274-.562.51-.892.697a4.705 4.705 0 0 1-2.39.596c-.632 0-1.256-.12-1.84-.359a4.123 4.123 0 0 1-1.456-1.027 4.407 4.407 0 0 1-.934-1.487l-.124-.376a5.453 5.453 0 0 1-.215-1.555 4.794 4.794 0 0 1 .555-2.33 3.896 3.896 0 0 1 1.693-1.56 5.503 5.503 0 0 1 2.616-.565h2.956v-1.026a2.23 2.23 0 0 0-.584-1.744 2.516 2.516 0 0 0-1.755-.554 2.846 2.846 0 0 0-1.509.35c-.365.235-.62.602-.719 1.025l-.091.32h-2.671v-.475a3.924 3.924 0 0 1 1.54-2.974 5.696 5.696 0 0 1 3.499-1.027h.002zm-12.047-3.468a6.475 6.475 0 0 1 4.526 1.353l.252.298a5.648 5.648 0 0 1 1.186 3.963 6.987 6.987 0 0 1-.71 3.335c-.48.898-1.26 1.6-2.206 1.98l-.584.171a11.06 11.06 0 0 1-2.997.363v6.877H88.51v-18.34h4.454zm14.061 12.253-2.28.031a1.433 1.433 0 0 0-1.25.513 2.358 2.358 0 0 0-.382 1.405c-.043.573.128 1.14.484 1.593l.144.144c.303.27.697.42 1.108.42.624 0 1.206-.309 1.56-.822.432-.595.649-1.319.616-2.052V40.52zm-14.337-9.25-.257.014v5.388a3.08 3.08 0 0 0 1.879-.474c.476-.57.693-1.314.593-2.051a3.3 3.3 0 0 0-.604-2.217 2.33 2.33 0 0 0-1.868-.646l.257-.014z" fill="#72C579"/><path d="M23.616 50.611a.99.99 0 0 0 .062.143c.096.226.224.437.38.625.13.183.278.35.44.504a4.84 4.84 0 0 0 1.099.77c.226.108.46.2.697.277.6-.26 1.246-.398 1.9-.401a4.87 4.87 0 0 1 1.18.155 4.209 4.209 0 0 0 2.175-4.105 4 4 0 0 0-3.078-4.106 7.314 7.314 0 0 1-.821.06c-1.818 0-4.25-.727-5.133-2.514-.543-1.15 0-2.432-.275-3.621a4.455 4.455 0 0 0-1.725-2.495 4.338 4.338 0 0 0-2.587-.831 4.042 4.042 0 0 0-3.08 6.835 4.406 4.406 0 0 0 2.956 1.426h.546a5.702 5.702 0 0 1 4.455 2.317 5.703 5.703 0 0 1 .902 4.94l-.092.02-.001.001z" fill="#A8E2C1"/><path d="M12.8 49.993a5.914 5.914 0 0 1-.083-.78v-.185a5.63 5.63 0 0 1 2.77-4.864h.051a5.592 5.592 0 0 1 2.732-.719c.481 0 .523-.286.974-.173a4.467 4.467 0 0 0 3.08-3.819 4.104 4.104 0 0 0-1.29-3.094 4.098 4.098 0 0 0-3.166-1.104 4.373 4.373 0 0 0-4.187 4.537 5.048 5.048 0 0 1-2.197 4.607c-1.549.832-3.344.227-4.842 1.254a4.362 4.362 0 1 0 6.382 5.264 5.92 5.92 0 0 1-.224-.924z" fill="#93D9E5"/><path d="M37.502 54.005a5.668 5.668 0 0 1-3.151-.677 4.539 4.539 0 0 1-1.868-1.704 5.446 5.446 0 0 1-.894-3.007 5.587 5.587 0 0 1 .31-1.815 4.291 4.291 0 0 0-8.057 2.206 4.105 4.105 0 0 0 2.443 3.828 5.105 5.105 0 0 1 1.538-.318 4.843 4.843 0 0 1 5.132 4.27c.238 1.24 0 2.554.7 3.734a4.402 4.402 0 0 0 3.794 2.197 4.37 4.37 0 0 0 4.16-4.368 4.37 4.37 0 0 0-4.16-4.366l.053.02z" fill="#A8E2C1"/><path d="M17.93 34.772a6.284 6.284 0 0 1-3.386-.594 4.77 4.77 0 0 1-1.746-1.787 3.762 3.762 0 0 1-.338-1.107 6.522 6.522 0 0 1 0-2.885 4.361 4.361 0 1 0-3.972 5.88 5.26 5.26 0 0 1 3.018.73 4.395 4.395 0 0 1 1.55 1.55c.902 1.538.245 3.15 1.168 4.68a4.392 4.392 0 0 0 8.16-2.175 4.372 4.372 0 0 0-4.454-4.292z" fill="#93D9E5"/><path d="M17.602 16.003a4.319 4.319 0 0 0-4.106 3.375c-.175.925-.153 1.88-.317 2.803a5.052 5.052 0 0 1-.894 2.166 3.175 3.175 0 0 1-1.94 1.24c-.682.055-1.368.055-2.052 0a4.363 4.363 0 0 0-1.283 8.51 4.506 4.506 0 0 0 5.224-2.053 1.59 1.59 0 0 0 .184-.523 2.452 2.452 0 0 0 0-.73 5.927 5.927 0 0 1 .36-3.211 4.385 4.385 0 0 1 2.236-2.3c1.325-.565 2.865-.328 4.23-.811a4.378 4.378 0 0 0 2.791-3.9 4.341 4.341 0 0 0-4.446-4.568h.01l.003.002z" fill="#93D9E5"/><path d="M37.235 34.889a4.373 4.373 0 0 0-4.26 4.474 5.279 5.279 0 0 1-.717 3.017 4.668 4.668 0 0 1-1.55 1.551c-1.552.903-3.347.298-4.876 1.22a4.453 4.453 0 0 0 .535 7.739c.58-.237 1.2-.358 1.826-.36.584 0 1.16.11 1.704.32a4.459 4.459 0 0 0 2.053-1.993 5.663 5.663 0 0 1-.42-2.153 5.28 5.28 0 0 1 3.498-5.132c.388-.137.799-.203 1.211-.195h.164a5.73 5.73 0 0 0 3.151-.36 4.41 4.41 0 0 0 2.175-3.879 4.371 4.371 0 0 0-4.494-4.25z" fill="#A8E2C1"/><path d="M31.61 48.597c0-.677.127-1.35.371-1.981a4.415 4.415 0 0 0-3.83-2.053 5.6 5.6 0 0 0-.799.091c-.259.057-.512.132-.759.228-.239.1-.469.221-.688.358-.219.133-.42.288-.605.463a3.83 3.83 0 0 0-.524.564c-.157.203-.292.42-.41.646a4.355 4.355 0 0 0-.309.708c-.075.255-.13.516-.164.78 0 .371 0 .749-.062 1.12-.006.175-.024.35-.051.523-.024.166-.059.33-.102.493a6.36 6.36 0 0 1-.39.945 7.111 7.111 0 0 1-.338.595 5.137 5.137 0 0 1-4.66 2.545 7.481 7.481 0 0 1-.832-.073c-.301.086-.59.206-.861.36a4.435 4.435 0 0 0-2.135 3.88 4.425 4.425 0 1 0 8.845-.217 6.321 6.321 0 0 1 .31-2.482 4.762 4.762 0 0 1 4.638-3.552c.659 0 1.312.133 1.92.39a4.442 4.442 0 0 0 1.98-1.93 5.464 5.464 0 0 1-.544-2.4z" fill="#81D9B9"/><path d="M27.712 52.528c2.142 0 3.879-1.787 3.879-3.992s-1.737-3.992-3.88-3.992c-2.142 0-3.878 1.787-3.878 3.992s1.736 3.992 3.879 3.992z" fill="#81D9B9"/><path d="M19.983 54.417a5.79 5.79 0 0 1-1.54.215h-.204a5.603 5.603 0 0 1-5.563-5.623V48.31c.01-.146.03-.288.062-.43.029-.183.07-.365.122-.544a4.463 4.463 0 0 0-4.014-2.288 4.37 4.37 0 1 0 .217 8.732 5.418 5.418 0 0 1 3.078.72 4.563 4.563 0 0 1 1.684 1.499c.923 1.549.308 3.344 1.252 4.873a4.497 4.497 0 0 0 3.92 2.053 4.34 4.34 0 0 0 1.026-8.56l-.04.052z" fill="#93D9E5"/><path d="M23.307 58.51a4.372 4.372 0 0 0-3.324-4.106h-.124c-.133 0-.276.062-.41.093h-1.21a6.332 6.332 0 0 1-.79-.062c-.3.08-.584.197-.853.35a4.434 4.434 0 0 0-2.134 3.88 4.193 4.193 0 0 0 1.95 3.468l.174.113c.208.128.427.236.656.318h.103c.217.073.432.124.647.175h.195c.26.025.52.025.78 0a4.404 4.404 0 0 0 4.342-4.228l-.002-.001zM18.002 43.352c2.409 0 4.362-1.92 4.362-4.29 0-2.369-1.953-4.29-4.363-4.29-2.409 0-4.362 1.921-4.362 4.29 0 2.37 1.953 4.29 4.363 4.29z" fill="#81D9B9"/></svg>
